X: 37450
T: Sliabh Na mBan
R: hornpipe
M: 4/4
K: Gmajor
|:BA|GDB,D G,DB,D|GBAG (3EFG (3DEF|GB (3def gdBd|cBAG Fedc|
(3BAG FG EDB,D|GBAG (3EFG (3DEF|GBdg (3efg dc|B2 G2 G2:|
|:Bc|dg (3gfg bg (3gfg|dgbg agfg|a^gab c'eag|(3fgf (3efe dgBc|
dg (3gfg bg (3gfg|dgbg (3efg dc|(3Bcd gd AdcA|B2 G2 G2:|

